src/img/alerta.svg

<svg width="22" height="20" viewBox="0 0 22 20" fill="none" xmlns="http://www.w3.org/2000/svg">
<path d="M20.6328 15.8516L12.7109 2C12.3359 1.32812 11.7656 0.992188 11 0.992188C10.2344 0.992188 9.66406 1.32812 9.28906 2L1.36719 15.8516C0.835938 16.7734 0.835938 17.6953 1.36719 18.6172C1.91406 19.5391 2.71875 20 3.78125 20H18.2188C19.2812 20 20.0781 19.5391 20.6094 18.6172C21.1562 17.6953 21.1641 16.7734 20.6328 15.8516ZM10.5078 8H11.4922V14H10.5078V8ZM11 16.5078C10.7969 16.5078 10.6172 16.4375 10.4609 16.2969C10.3203 16.1406 10.25 15.9609 10.25 15.7578C10.25 15.5391 10.3203 15.3594 10.4609 15.2188C10.6172 15.0781 10.7969 15.0078 11 15.0078C11.2031 15.0078 11.375 15.0781 11.5156 15.2188C11.6719 15.3594 11.75 15.5391 11.75 15.7578C11.75 15.9609 11.6719 16.1406 11.5156 16.2969C11.375 16.4375 11.2031 16.5078 11 16.5078Z" fill="white"/>
</svg>

<svg width="22" height="20" fill="none" xmlns="http://www.w3.org/2000/svg"><path d="M20.633 15.852L12.71 2C12.336 1.328 11.766.992 11 .992S9.664 1.328 9.29 2L1.366 15.852c-.531.921-.531 1.843 0 2.765C1.914 19.54 2.72 20 3.781 20H18.22c1.062 0 1.86-.46 2.39-1.383.547-.922.555-1.844.024-2.765zM10.508 8h.984v6h-.984V8zM11 16.508a.782.782 0 01-.54-.211.782.782 0 01-.21-.54.73.73 0 01.21-.538.782.782 0 01.54-.211c.203 0 .375.07.516.21a.696.696 0 01.234.54.741.741 0 01-.234.539.701.701 0 01-.516.21z" fill="#fff"/></svg>
